_includes/icons/ios-paypal.svg

<svg fill="#666" height="50" viewBox="0 0 50 50" width="50" xmlns="http://www.w3.org/2000/svg"><path d="m11.4375 2c-1.050781 0-1.933594.761719-2.15625 1.71875v.03125s-5.875 26.964844-7.03125 32.34375v.03125c-.171875.859375 0 1.691406.5 2.21875s1.132813.65625 1.65625.65625h8.5625c-.269531 1.21875-.570312 2.558594-.78125 3.53125-.191406.878906-.355469 1.59375-.46875 2.125s-.15625.773438-.1875.9375c-.082031.433594-.0625.929688.28125 1.46875.34375.539063 1.097656.9375 1.9375.9375h8.9375c1.074219 0 1.933594-.75 2.15625-1.75 0 0 .535156-2.410156 1.0625-4.84375.261719-1.21875.511719-2.425781.71875-3.375s.375-1.6875.375-1.6875c.050781-.214844.09375-.308594.09375-.3125s-.097656-.03125.1875-.03125h5.125c7.382813 0 13.59375-4.445312 15.25-12.1875.933594-4.378906-.183594-7.710937-2.3125-9.8125-1.878906-1.855469-4.460937-2.738281-6.9375-2.9375-.296875-2.972656-1.710937-5.292969-3.625-6.78125-2.011719-1.5625-4.503906-2.28125-6.875-2.28125zm0 2h16.46875c1.953125 0 4.050781.625 5.65625 1.875 1.464844 1.140625 2.449219 2.835938 2.75 5.125h-15.375c-.261719 0-.550781-.03125-1 .09375s-1 .648438-1.125 1.1875l-3.25 14.625v.0625l-2.25 10.03125h-8.90625c-.152344 0-.226562-.039062-.21875-.03125.007813.007813-.03125-.070312.03125-.4375.003906-.027344-.007812 0 0-.03125 1.160156-5.390625 7.019531-32.261719 7.03125-32.3125v-.03125c.03125-.101562.089844-.15625.1875-.15625zm9.25 9c.085938-.003906.082031 0 .25 0h15.46875c-.042969.652344-.132812 1.34375-.3125 2.1875-.742187 3.476563-2.246094 5.851563-4.4375 7.4375-2.191406 1.585938-5.136719 2.375-8.71875 2.375h-4.40625c-.152344 0-.339844.042969-.53125.0625zm17.625.15625c2.066406.183594 4.179688.855469 5.625 2.28125 1.652344 1.632813 2.578125 4.085938 1.75 7.96875-1.480469 6.914063-6.671875 10.59375-13.28125 10.59375h-5.125c-.746094 0-1.398437.332031-1.75.78125-.351562.449219-.429687.925781-.46875 1.09375-.046875.191406-.167969.769531-.375 1.71875s-.488281 2.1875-.75 3.40625c-.527344 2.433594-1.03125 4.8125-1.03125 4.8125-.019531.082031-.183594.1875-.21875.1875h-8.9375c-.167969 0-.226562-.023437-.25-.03125-.015625.078125.074219-.34375.1875-.875s.277344-1.277344.46875-2.15625c.378906-1.761719.875-4.070312 1.375-6.375 1-4.609375 2-9.1875 2-9.1875.046875-.144531.082031-.179687.25-.25.1875-.078125.507813-.125.75-.125h4.40625c3.878906 0 7.253906-.855469 9.875-2.75s4.425781-4.804687 5.25-8.65625c.1875-.878906.199219-1.648437.25-2.4375z"/></svg>

<svg xmlns="http://www.w3.org/2000/svg" viewBox="0 0 50 50" width="50" height="50" fill="#666"><path d="M 11.4375 2 C 10.386719 2 9.503906 2.761719 9.28125 3.71875 L 9.28125 3.75 C 9.28125 3.75 3.40625 30.714844 2.25 36.09375 L 2.25 36.125 C 2.078125 36.984375 2.25 37.816406 2.75 38.34375 C 3.25 38.871094 3.882813 39 4.40625 39 L 12.96875 39 C 12.699219 40.21875 12.398438 41.558594 12.1875 42.53125 C 11.996094 43.410156 11.832031 44.125 11.71875 44.65625 C 11.605469 45.1875 11.5625 45.429688 11.53125 45.59375 C 11.449219 46.027344 11.46875 46.523438 11.8125 47.0625 C 12.15625 47.601563 12.910156 48 13.75 48 L 22.6875 48 C 23.761719 48 24.621094 47.25 24.84375 46.25 C 24.84375 46.25 25.378906 43.839844 25.90625 41.40625 C 26.167969 40.1875 26.417969 38.980469 26.625 38.03125 C 26.832031 37.082031 27 36.34375 27 36.34375 C 27.050781 36.128906 27.09375 36.035156 27.09375 36.03125 C 27.09375 36.027344 26.996094 36 27.28125 36 L 32.40625 36 C 39.789063 36 46 31.554688 47.65625 23.8125 C 48.589844 19.433594 47.472656 16.101563 45.34375 14 C 43.464844 12.144531 40.882813 11.261719 38.40625 11.0625 C 38.109375 8.089844 36.695313 5.769531 34.78125 4.28125 C 32.769531 2.71875 30.277344 2 27.90625 2 Z M 11.4375 4 L 27.90625 4 C 29.859375 4 31.957031 4.625 33.5625 5.875 C 35.027344 7.015625 36.011719 8.710938 36.3125 11 L 20.9375 11 C 20.675781 11 20.386719 10.96875 19.9375 11.09375 C 19.488281 11.21875 18.9375 11.742188 18.8125 12.28125 L 15.5625 26.90625 L 15.5625 26.96875 L 13.3125 37 L 4.40625 37 C 4.253906 37 4.179688 36.960938 4.1875 36.96875 C 4.195313 36.976563 4.15625 36.898438 4.21875 36.53125 C 4.222656 36.503906 4.210938 36.53125 4.21875 36.5 C 5.378906 31.109375 11.238281 4.238281 11.25 4.1875 L 11.25 4.15625 C 11.28125 4.054688 11.339844 4 11.4375 4 Z M 20.6875 13 C 20.773438 12.996094 20.769531 13 20.9375 13 L 36.40625 13 C 36.363281 13.652344 36.273438 14.34375 36.09375 15.1875 C 35.351563 18.664063 33.847656 21.039063 31.65625 22.625 C 29.464844 24.210938 26.519531 25 22.9375 25 L 18.53125 25 C 18.378906 25 18.191406 25.042969 18 25.0625 Z M 38.3125 13.15625 C 40.378906 13.339844 42.492188 14.011719 43.9375 15.4375 C 45.589844 17.070313 46.515625 19.523438 45.6875 23.40625 C 44.207031 30.320313 39.015625 34 32.40625 34 L 27.28125 34 C 26.535156 34 25.882813 34.332031 25.53125 34.78125 C 25.179688 35.230469 25.101563 35.707031 25.0625 35.875 C 25.015625 36.066406 24.894531 36.644531 24.6875 37.59375 C 24.480469 38.542969 24.199219 39.78125 23.9375 41 C 23.410156 43.433594 22.90625 45.8125 22.90625 45.8125 C 22.886719 45.894531 22.722656 46 22.6875 46 L 13.75 46 C 13.582031 46 13.523438 45.976563 13.5 45.96875 C 13.484375 46.046875 13.574219 45.625 13.6875 45.09375 C 13.800781 44.5625 13.964844 43.816406 14.15625 42.9375 C 14.535156 41.175781 15.03125 38.867188 15.53125 36.5625 C 16.53125 31.953125 17.53125 27.375 17.53125 27.375 C 17.578125 27.230469 17.613281 27.195313 17.78125 27.125 C 17.96875 27.046875 18.289063 27 18.53125 27 L 22.9375 27 C 26.816406 27 30.191406 26.144531 32.8125 24.25 C 35.433594 22.355469 37.238281 19.445313 38.0625 15.59375 C 38.25 14.714844 38.261719 13.945313 38.3125 13.15625 Z"/></svg>
